X: 32752
T: Polska Efter Johnny Schönning
R: slip jig
M: 9/8
K: Bdorian
|:~F3B2c d2e|~f3 ^g3 e3|f2=f ^f2d c2A|B2d c2A F2E|
~F3B2c d2e|~f3 ^g3 e3|f2=f ^f2d c2A|1 B4 zc BAG:|2 B4 zD FAc||
|:d2{g}a f2d c2A|B2d c2A F2c|d2f f2d c2A|B2d c2A FED|
~F3B2c d2e|~f3 ^g3 e3|f2=f ^f2d c2A|1 B4 zD FAc:|2 B2z A~B3AG||

